X:651
T: ES SANGEN DREI ENGEL
N: E2032
O: Europa, Mitteleuropa, Deutschland, Hessen, Hanau
R: geistlich, Wallfahrts - Lied
M: 3/4
L: 1/8
K: F
FA | c2A2cd | cBG2BB | A2c2A2 | G4
c2 | d2d2e2 | fdc2dB | A2c2G2 | F4
c2 | d2d2e2 | fdc2dB | A2c2G2 | F4

@@@ Tune index: 5335
